X:635
T: Master Henry's
T: R\'il an Mh\'aistir Mhic Annraoi
S: B.Breathnach: "Ceol Rince na hEireann" II/157
Z: B.Black
L: 1/8
M: 4/4
R: reel
K: G
GGGB AE E2|G2 Bd gedB|GGGB AE E2|cBAG E2 D>F|
G2 GB AE E2|GABd gedB|GGGB AE E2|cBAG E2 D>||
d|g2 dg egdg|g2 dg eaaf|g2 dg egdB|cBAG EG D2|
g2 dg egdg|g2 dg ea a2|(3bag af gfed|cdef gedB||

